X: 22
T:Alborada de Pontecaldelas (continuación)
M:2/4
L:1/16
B:Leccións de Gaita. OTERO COVELO
K:C
 _A_BAG F2=A2| c2_BA GAGA | G6E2| G2FE DEFD | EFED C2C2|
E2DC B,CDB, | C6 E2 |G2FE DEFD | EFED C2C2|
DEDC B,CDE | C6 C2 :| DED>B, C2D2 | EFE>C D2E2 |
FGF>D E2F2 | G8 | c3B GA_BG | A_BAG F2F2 |
A_BAG FGAF | G4 E2G2 |: FEFA DCDF |
EDEG CB,CE | DCDF B,CDE |1 C4 E2G2 :|2 
C6C2 |: D3B, CB,CD | E3C DCDE | F3D EDEF |
G6 C2 :| A3G FEFA |G8 | A3G FEFA | G8 |
A3G AGAB | c6 G2 | A3G AGAB |c6 G2 |
c2BA GA_BG | A_BAG F2F2 | _A3G FGAF |G6E2 |
|: G2FE DEFD| EFED CDEC | DEDC B,CDB, |1 C6 E2 :|2
C6G2| C6G2 | C4- CDEF | G4- GFED | C4- CDEF | G8 | c2 ||

